img/svg/lotki.svg

<svg xmlns="http://www.w3.org/2000/svg" viewBox="276 347 60 60" enable-background="new 276 347 60 60"><path fill="#fff" d="M278.6 349.6h54.7v54.7h-54.7v-54.7zm-2.6-2.6v60h60v-60h-60zm5.6 5.6h14.8v14.5h-14.8v-14.5zm16.7 0h15.5v14.5h-15.5v-14.5zm17.6.2h14.8v14.5h-14.8v-14.5zm-34.3 16.3h14.8v15.5h-14.8v-15.5zm16.7 0h15.8v15.5h-15.8v-15.5zm17.6.3h14.7v15.5h-14.7v-15.5zm-34.3 17.3h14.8v14.5h-14.8v-14.5zm16.7 0h15.8v14.5h-15.8v-14.5zm17.6.2h14.7v14.5h-14.7v-14.5z"/></svg>

<?xml version="1.0" encoding="utf-8"?>
<!-- Generator: Adobe Illustrator 18.0.0, SVG Export Plug-In . SVG Version: 6.00 Build 0)  -->
<!DOCTYPE svg PUBLIC "-//W3C//DTD SVG 1.1//EN" "http://www.w3.org/Graphics/SVG/1.1/DTD/svg11.dtd">
<svg version="1.1" id="Layer_1" xmlns="http://www.w3.org/2000/svg" xmlns:xlink="http://www.w3.org/1999/xlink" x="0px" y="0px"
	 viewBox="276 347 60 60" enable-background="new 276 347 60 60" xml:space="preserve">
<path fill="#FFFFFF" d="M278.6,349.6h54.7v54.7h-54.7V349.6z M276,347v60h60v-60H276z M281.6,352.6h14.8v14.5h-14.8V352.6z
	 M298.3,352.6h15.5v14.5h-15.5V352.6z M315.9,352.8h14.8v14.5h-14.8V352.8z M281.6,369.1h14.8v15.5h-14.8V369.1z M298.3,369.1h15.8
	v15.5h-15.8V369.1z M315.9,369.4h14.7v15.5h-14.7V369.4z M281.6,386.7h14.8v14.5h-14.8V386.7z M298.3,386.7h15.8v14.5h-15.8V386.7z
	 M315.9,386.9h14.7v14.5h-14.7V386.9z"/>
</svg>
